Adwaita++-Light/panel/16/new-messages-red.svg

<svg height="16" width="16" xmlns="http://www.w3.org/2000/svg">
  <path d="m2 2c-1.108 0-2 .892-2 2v8c0 1.108.892 2 2 2h6 5.441406v-.001953a2.5 2.5 0 0 1 -2.441406-2.498047 2.5 2.5 0 0 1 2.5-2.5 2.5 2.5 0 0 1 2.496094 2.355469h.003906v-7.355469c0-1.108-.892-2-2-2h-6zm0 2 6 3 6-3v2l-6 3-6-3z" fill="#444"/>
  <path d="m13.5 10a1.5 1.5 0 0 0 -1.5 1.5 1.5 1.5 0 0 0 1.5 1.5 1.5 1.5 0 0 0 1.5-1.5 1.5 1.5 0 0 0 -1.5-1.5z" fill="#4285f4"/>
</svg>

<svg xmlns="http://www.w3.org/2000/svg" width="16" height="16" version="1.1">
 <defs>
  <style id="current-color-scheme" type="text/css">
   .ColorScheme-Text { color:#444444; } .ColorScheme-Highlight { color:#4285f4; }
  </style>
 </defs>
 <path style="fill:currentColor" class="ColorScheme-Text" d="M 2 2 C 0.892 2 0 2.892 0 4 L 0 12 C 0 13.108 0.892 14 2 14 L 8 14 L 13.441406 14 L 13.441406 13.998047 A 2.5 2.5 0 0 1 11 11.5 A 2.5 2.5 0 0 1 13.5 9 A 2.5 2.5 0 0 1 15.996094 11.355469 L 16 11.355469 L 16 4 C 16 2.892 15.108 2 14 2 L 8 2 L 2 2 z M 2 4 L 8 7 L 14 4 L 14 6 L 8 9 L 2 6 L 2 4 z"/>
 <path style="fill:currentColor" class="ColorScheme-Highlight" d="M 13.5,10 A 1.5,1.5 0 0 0 12,11.5 1.5,1.5 0 0 0 13.5,13 1.5,1.5 0 0 0 15,11.5 1.5,1.5 0 0 0 13.5,10 Z"/>
</svg>
